X:63
T:Tuusulan Polkka
M:2/4
L:1/16
Q:1/4=120
R:polka
K:G
|: d | "G" .e2.d2 .c2.B2 | "D7" D2FA FDFA |
.d2.c2 .B2.A2 | "G" G2Bd BGBd | !
.e2.d2 .c2.B2 | "D7" D2FA FDFA |
.d2.c2 .B2.A2 | "G" .G2.B2 .G2 z :| !
|: z | "C" c2eg eceg | "G" G2Bd BGBd |
"D7" D2FA FDFA | "G" G2Bd BGBd | !
"C" c2eg eceg | "G" G2Bd BGBc |
.d2.c2 .B2.A2 | "G" .G2.B2 .G2 z :| !
